X: 119
T: No_205_Song_for_Bringing_a_Child_into_the_World.krn
N: Derived from No_205_Song_for_Bringing_a_Child_into_the_World.krn
%%abc-version 2.0
%%abcx-abcm2ps-target-version 5.9.1 (29 Sep 2008)
%%abc-creator hum2abc beta
%%abcx-conversion-date 2019/03/15 08:38:45
%%humdrum-veritas 2188488797
%%humdrum-veritas-data 3899309852
%%linebreak <none>
%%barnumbers 0
L: 1/8
M: 2/4
K: C clef=treble
z2G [I:setbarnb 1]]|:  
G2G3/D/ | 
G4- | 
G2D3/E/ | 
D2C3/G,/ ||  
[M:3/4](C4A,3/)G,/ ||  
[M:2/4]G,2A,3/G,/ ||  
[M:3/4]G,4z F ||  
[M:2/4]D2D3/D/ | 
B,3/G,/ G,3/E/ ||  
[M:3/4]D3/E/D2A,3/G,/ ||  
[M:5/8]G,4-G,/G,/ ||  
[M:2/4]G,2A,3/G,/ ||  
[M:3/4]G,4z D :|]  
G,4 |]  



